!!!!SEGMENT: pl-cz--iii-573--006_rygall-ignacy--rorate-caeli-maryja-wielebna.krn
!!!cenid: 18xx:1036
!!!COM: Rygall, Ignacy
!!!COM-rismid: pe30110281
!!!CDT: <1750->1799
!!!CNT:
!!!OPR: Rorate caeli
!!!OTL: Maryja wielebna
!!!OMV: 006
!!!PDT:
!!!AGN: Sacred
!!!SMS-siglum: PL-CZ
!!!SMS-shelfmark: III-573
!!!SMS-variant:
!!!SMS-altvar:
!!!SMS-shelfwork: 001-006 M
!!!NIFC-rismid: 300001133
!!!URL-scan: http://repozytorium.nifc.pl/skany/pl-cz-nut--iii-573
!!!ONB-nifc: UWAGA: części Rorate caeli: Intonatio, Benedixisti Domine, Mittit ad virginem, Zdrowaś bądź Maria, Suer bientium, Maryja wielebna, Qui nobis tribuat, Łaskiś pełna Pańskiej
!!!AIN: 1 alto 1 bass 1 cor 2 empty 2 oboe 1 organ 1 soprn 1 tenor 1 timpa 2 viola 2 violn
!!!key:
**kern	**dynam	**kern	**kern	**kern	**kern	**kern	**kern	**kern	**kern	**text	**text	**kern	**text	**text	**kern	**kern	**kern	**kern	**kern
*part15	*part15	*part14	*part13	*part12	*part11	*part10	*part9	*part8	*part7	*part7	*part7	*part6	*part6	*part6	*part5	*part4	*part3	*part2	*part1
*staff15	*	*staff14	*staff13	*staff12	*staff11	*staff10	*staff9	*staff8	*staff7	*staff7	*staff7	*staff6	*staff6	*staff6	*staff5	*staff4	*staff3	*staff2	*staff1
*Iorgan	*	*Iempty	*Iviola	*Iviola	*Ivioln	*Ivioln	*Ibass	*Itenor	*Ialto	*	*	*Isoprn	*	*	*Itimpa	*Iempty	*Icor	*Ioboe	*Ioboe
*I"Organo	*	*I"Violini Grosso	*I"Viola	*I"Viola	*I"Violino Secondo.	*I"Violino Primo	*I"Basso	*I"Tenore	*I"Alto	*	*	*I"Sopran	*	*	*I"Tympano in D.A.	*I"Corno IIdo in G	*I"Corno 1mo in G	*I"Oboe IIdo	*I"Oboe 1mo
*I'Org.	*	*I'V.g.	*I'V-la	*I'V-la	*I'V-no II	*I'V-no I	*I'B.	*I'T.	*I'A.	*	*	*I'S.	*	*	*I'Timp.	*I'C. II	*I'C. I	*I'Ob. II	*I'Ob. I
*clefF4	*	*clefF4	*clefC3	*clefC3	*clefG2	*clefG2	*clefF4	*clefC4	*clefC3	*	*	*clefC1	*	*	*clefF4	*clefG2	*clefG2	*clefG2	*clefG2
*	*	*	*	*	*	*	*	*	*	*	*	*	*	*	*	*ITrd3c5	*ITrd3c5	*	*
*k[f#]	*	*k[f#]	*k[f#]	*k[f#]	*k[f#]	*k[f#]	*k[f#]	*k[f#]	*k[f#]	*	*	*k[f#]	*	*	*k[f#]	*k[f#]	*k[f#]	*k[f#]	*k[f#]
*G:	*	*G:	*G:	*G:	*G:	*G:	*G:	*G:	*G:	*	*	*G:	*	*	*G:	*G:	*G:	*G:	*G:
*M3/4	*	*M3/4	*M3/4	*M3/4	*M3/4	*M3/4	*M3/4	*M3/4	*M3/4	*	*	*M3/4	*	*	*M3/4	*M3/4	*M3/4	*M3/4	*M3/4
*	*below	*	*	*	*	*	*	*	*	*	*	*	*	*	*	*	*	*	*
=1	=1	=1	=1	=1	=1	=1	=1	=1	=1	=1	=1	=1	=1	=1	=1	=1	=1	=1	=1
*	*	*	*2\right	*2\right	*	*	*	*	*2\right	*	*	*2\right	*	*	*	*2\right	*2\right	*	*
!	!	!	!	!LO:SIC:v:t=podpowiedź- piąty system, po ośmiu taktach pauzy	!	!	!	!	!	!	!	!	!	!	!	!	!	!	!
!LO:SIC:v:t=podpowiedź- szósty system, czwarty takt od końca	!	!LO:TX:t=P:problem=brak partii, wybrakowane źródło	!LO:SIC:v:t=podpowiedź- piąty system, po ośmiu taktach pauzy	!	!LO:TX:a:t=Zdrowas Tace	!LO:TX:a:t=Zdrowas Tace	!LO:TX:a:t=Zdrowas Tace	!LO:TX:a:t=Zdrowas Tace	!	!	!	!	!	!	!LO:TX:t=P:problem=brak partii, wybrakowane źródło	!LO:SIC:v:t=podpowiedź- czwarty system, po ośmiu taktach przerwy	!LO:SIC:v:t=podpowiedź- czwarty system, po ośmiu taktach przerwy	!LO:SIC:v:t=podpowiedź- Piąty system, trzeci takt	!LO:SIC:v:t=podpowiedź- Piąty system od 3/4
!	!LO:DY:t=p&colon;	!	!	!	!	!	!	!	!	!	!	!	!	!	!	!	!	!LO:N:vis=00	!LO:N:vis=00
4G\	p	2.ryy	2b\	2dd\	2.ryy	2.ryy	2.ryy	2.ryy	2b\	Ma-	.	2dd\	[Zdro-	Ła-	2.ryy	2b\	2dd\	0.r	0.r
4B\	.	.	.	.	.	.	.	.	.	.	.	.	.	.	.	.	.	.	.
4G\	.	.	4g\	4b\	.	.	.	.	4g\	-ri-	.	4b\	-waś	-skiś	.	4g\	4b\	.	.
=2	=2	=2	=2	=2	=2	=2	=2	=2	=2	=2	=2	=2	=2	=2	=2	=2	=2	=2	=2
4F#\	.	2.ryy	2d\	2a\	2.ryy	2.ryy	2.ryy	2.ryy	4.f#\	-a	.	4.a\	bądź	Peł-	2.ryy	2d\	2g\	.	.
4D\	.	.	.	.	.	.	.	.	.	.	.	.	.	.	.	.	.	.	.
.	.	.	.	.	.	.	.	.	8a\	.	.	8cc\	.	.	.	.	.	.	.
4G\	.	.	4g\	4b\	.	.	.	.	8g\L	wie-	.	8b\L	Ma-	-na	.	4g\	4b\	.	.
.	.	.	.	.	.	.	.	.	8cc\J	.	.	8ee\J	.	.	.	.	.	.	.
=3	=3	=3	=3	=3	=3	=3	=3	=3	=3	=3	=3	=3	=3	=3	=3	=3	=3	=3	=3
4A\	.	2.ryy	4b\	4dd\	2.ryy	2.ryy	2.ryy	2.ryy	2b\	-leb-	.	2dd\	-ri-	Pań-	2.ryy	4a\	4dd\	.	.
4F#\	.	.	4a\	4cc\	.	.	.	.	.	.	.	.	.	.	.	4g\	4cc\	.	.
4D\	.	.	4d\	4a\	.	.	.	.	4a\	.	.	4cc\	.	.	.	4d\	4a\	.	.
=4	=4	=4	=4	=4	=4	=4	=4	=4	=4	=4	=4	=4	=4	=4	=4	=4	=4	=4	=4
4G\	.	2.ryy	4g\	4b\	2.ryy	2.ryy	2.ryy	2.ryy	2g\	-na	.	2b\	-a	-skiej	2.ryy	4g\	4b\	.	.
4GG/	.	.	8g\L	8b\L	.	.	.	.	.	.	.	.	.	.	.	8g\L	8b\L	.	.
.	.	.	8g\J	8b\J	.	.	.	.	.	.	.	.	.	.	.	8g\J	8b\J	.	.
4G\	.	.	4g\	4b\	.	.	.	.	4r	.	.	4r	.	.	.	4g\	4b\	.	.
!	!	!	!	!	!	!	!	!	!LO:LB:g=original	!	!	!LO:LB:g=original	!	!	!	!	!	!	!
=5	=5	=5	=5	=5	=5	=5	=5	=5	=5	=5	=5	=5	=5	=5	=5	=5	=5	=5	=5
*	*	*	*	*	*	*	*	*	*	*	*	*	*	*	*	*	*	*2\right	*2\right
!	!	!	!LO:N:vis=00	!LO:N:vis=00	!	!	!	!	!	!	!	!	!	!	!	!LO:TX:a:t=4	!LO:TX:a:t=4	!	!
!	!	!	!	!	!	!	!	!	!	!	!	!	!	!	!	!LO:N:vis=00	!LO:N:vis=00	!	!
4G\	.	2.ryy	0.r	0.r	2.ryy	2.ryy	2.ryy	2.ryy	2g\	u-	.	2b\	Nie-	czy-	2.ryy	0.r	0.r	2gg\	2bb\
4G\	.	.	.	.	.	.	.	.	.	.	.	.	.	.	.	.	.	.	.
4E\	.	.	.	.	.	.	.	.	4e\	-kasz	.	4cc#X\	-bies-	-sto-	.	.	.	4ee\	4gg\
!	!	!	!	!	!	!	!	!	!	!	!	!	!	!	!	!	!	!LO:LB:g=original	!
=6	=6	=6	=6	=6	=6	=6	=6	=6	=6	=6	=6	=6	=6	=6	=6	=6	=6	=6	=6
4F#\	.	2.ryy	.	.	2.ryy	2.ryy	2.ryy	2.ryy	2f#\	Dro-	.	2dd\	-ka.	-ści	2.ryy	.	.	2dd\	2ff#\
4D\	.	.	.	.	.	.	.	.	.	.	.	.	.	.	.	.	.	.	.
4F#\	.	.	.	.	.	.	.	.	4f#\	-gę	.	4r	.	.	.	.	.	4ff#\	4aa\
=7	=7	=7	=7	=7	=7	=7	=7	=7	=7	=7	=7	=7	=7	=7	=7	=7	=7	=7	=7
4G\	.	2.ryy	.	.	2.ryy	2.ryy	2.ryy	2.ryy	4g\	pew-	.	4ee\	li-	A-	2.ryy	.	.	8b/L	8gg\L
.	.	.	.	.	.	.	.	.	.	.	.	.	.	.	.	.	.	8g/J	8ee\J
4A\	.	.	.	.	.	.	.	.	4f#\	.	.	4dd\	-li-	.	.	.	.	4f#/	4dd\
4AA/	.	.	.	.	.	.	.	.	4e\	.	.	4cc#X\	.	-niel-	.	.	.	4g/	4cc#X\
=8	=8	=8	=8	=8	=8	=8	=8	=8	=8	=8	=8	=8	=8	=8	=8	=8	=8	=8	=8
4D\	.	2.ryy	.	.	2.ryy	2.ryy	2.ryy	2.ryy	4f#\	.	.	2dd\	-a	-skiej	2.ryy	.	.	2f#/	2dd\
4DD/	.	.	.	.	.	.	.	.	4r	.	.	.	.	.	.	.	.	.	.
4D\	.	.	.	.	.	.	.	.	4r	.	.	4ryy	.	.	.	.	.	4r	4r
!LO:LB:g=original	!	!	!	!	!	!	!	!	!	!	!	!LO:LB:g=original	!	!	!	!LO:LB:g=original	!	!	!
=9	=9	=9	=9	=9	=9	=9	=9	=9	=9	=9	=9	=9	=9	=9	=9	=9	=9	=9	=9
!	!	!	!	!	!	!	!	!	!LO:SIC:v:t=tekst skreślony, trudny do odczytania	!	!	!	!	!	!	!	!	!LO:N:vis=00	!LO:N:vis=00
4B\	.	2.ryy	4b\	2dd\	2.ryy	2.ryy	2.ryy	2.ryy	2b\	-Przy-	.	4dd\	Pa-	Pan-	2.ryy	4b\	2dd\	0.r	0.r
4G\	.	.	4g\	.	.	.	.	.	.	.	.	4gg\	.	.	.	4g\	.	.	.
4B\	.	.	4b\	4dd\	.	.	.	.	4b\	-ka-	.	4ffn\	-nu	-naś	.	4b\	4dd\	.	.
!	!	!	!	!	!	!	!	!	!	!	!	!	!	!	!	!	!LO:LB:g=original	!	!
=10	=10	=10	=10	=10	=10	=10	=10	=10	=10	=10	=10	=10	=10	=10	=10	=10	=10	=10	=10
4c\	.	2.ryy	4cc\	2ee\	2.ryy	2.ryy	2.ryy	2.ryy	2cc\	-za-	.	2ee\	B-	nad	2.ryy	4cc\	2ee\	.	.
4C/	.	.	4g\	.	.	.	.	.	.	.	.	.	.	.	.	4g\	.	.	.
4B\	.	.	4b\	4dd\	.	.	.	.	4b\	-nia	.	4dd\	-gu	.	.	4b\	4dd\	.	.
=11	=11	=11	=11	=11	=11	=11	=11	=11	=11	=11	=11	=11	=11	=11	=11	=11	=11	=11	=11
4A\	.	2.ryy	4b\	4dd\	2.ryy	2.ryy	2.ryy	2.ryy	4b\	Twe-	[moc-	4dd\	Mi-	Pan-	2.ryy	4b\	4dd\	.	.
4F#\	.	.	4a\	4cc\	.	.	.	.	4a\	.	-ne-	4cc\	.	-na-	.	4a\	4cc\	.	.
4G\	.	.	4g\	4b\	.	.	.	.	4g\	.	.	4b\	.	.	.	4g\	4b\	.	.
=12	=12	=12	=12	=12	=12	=12	=12	=12	=12	=12	=12	=12	=12	=12	=12	=12	=12	=12	=12
4D\	.	2.ryy	4d\	4a\	2.ryy	2.ryy	2.ryy	2.ryy	2f#\	-go	-go]	2a\	-la	-mi	2.ryy	4d/	4a\	.	.
4AA\	.	.	4d\	4a\	.	.	.	.	.	.	.	.	.	.	.	4d/	4a\	.	.
4DD/	.	.	4d\	4a\	.	.	.	.	4r	.	.	4r	.	.	.	4d/	4a\	.	.
!	!	!	!LO:LB:g=original	!LO:LB:g=original	!	!	!	!	!LO:LB:g=original	!	!	!	!	!	!	!	!	!	!
=13	=13	=13	=13	=13	=13	=13	=13	=13	=13	=13	=13	=13	=13	=13	=13	=13	=13	=13	=13
!	!	!	!	!	!	!	!	!	!	!	!	!	!	!	!	!	!	!LO:N:vis=00	!LO:N:vis=00
4F#\	.	2.ryy	2d\	2a\	2.ryy	2.ryy	2.ryy	2.ryy	2f#\	Bo-	.	2a\	Mat-	Świę-	2.ryy	2d/	2a\	0.r	0.r
4D\	.	.	.	.	.	.	.	.	.	.	.	.	.	.	.	.	.	.	.
4G\	.	.	4g\	4b\	.	.	.	.	4g\	.	.	4b\	.	-ta	.	4g\	4b\	.	.
!	!	!	!	!	!	!	!	!	!	!	!	!LO:LB:g=original	!	!	!	!	!	!	!
=14	=14	=14	=14	=14	=14	=14	=14	=14	=14	=14	=14	=14	=14	=14	=14	=14	=14	=14	=14
4A\	.	2.ryy	4a\	2cc\	2.ryy	2.ryy	2.ryy	2.ryy	2a\	-ga	.	2cc\	-ko	nad	2.ryy	4a\	2cc\	.	.
4D\	.	.	4d\	.	.	.	.	.	.	.	.	.	.	.	.	4d/	.	.	.
4G\	.	.	4g\	4b\	.	.	.	.	4g\	.	.	4b\	.	.	.	4g\	4b\	.	.
=15	=15	=15	=15	=15	=15	=15	=15	=15	=15	=15	=15	=15	=15	=15	=15	=15	=15	=15	=15
4c\	.	2.ryy	8cc\L	8ee\L	2.ryy	2.ryy	2.ryy	2.ryy	8cc\L	wszech-	.	8ee\L	li-	świę-	2.ryy	8cc\L	8ee\L	.	.
.	.	.	8b\J	8dd\J	.	.	.	.	8b\J	.	.	8dd\J	-to-	.	.	8b\J	8dd\J	.	.
4A\	.	.	4a\	4cc\	.	.	.	.	4a\	-mo-	.	4cc\	-ści-	.	.	4a\	4cc\	.	.
4c#X\	.	.	4g\	4b\	.	.	.	.	4g\	-cne-	.	4b\	-wa	-te-	.	4g\	4b\	.	.
=16	=16	=16	=16	=16	=16	=16	=16	=16	=16	=16	=16	=16	=16	=16	=16	=16	=16	=16	=16
4d\	.	2.ryy	4d\	4a\	2.ryy	2.ryy	2.ryy	2.ryy	2f#\	-go	.	2a\	.	-mi	2.ryy	4d/	4a\	.	.
4A\	.	.	8d\L	8a\L	.	.	.	.	.	.	.	.	.	.	.	8d/L	8a\L	.	.
.	.	.	8d\J	8a\J	.	.	.	.	.	.	.	.	.	.	.	8d/J	8a\J	.	.
4D\	.	.	4d\	4a\	.	.	.	.	4r	.	.	4r	.	.	.	4d/	4a\	.	.
!	!	!	!	!	!	!	!	!	!LO:LB:g=original	!	!	!	!	!	!	!	!	!	!
=17	=17	=17	=17	=17	=17	=17	=17	=17	=17	=17	=17	=17	=17	=17	=17	=17	=17	=17	=17
!	!	!	!LO:N:vis=0	!LO:N:vis=0	!	!	!	!	!	!	!	!	!	!	!	!LO:TX:a:t=2	!LO:TX:a:t=2	!	!
!	!	!	!	!	!	!	!	!	!	!	!	!	!	!	!	!LO:N:vis=0	!LO:N:vis=0	!	!
4F#\	.	2.ryy	1.r	1.r	2.ryy	2.ryy	2.ryy	2.ryy	2a\	on-	.	2cc\	Tyś	Naj-	2.ryy	1.r	1.r	2g\	2cc\
4F#\	.	.	.	.	.	.	.	.	.	.	.	.	.	.	.	.	.	.	.
4G\	.	.	.	.	.	.	.	.	4g\	-cy	.	4b\	jest	.	.	.	.	4g\	4b\
=18	=18	=18	=18	=18	=18	=18	=18	=18	=18	=18	=18	=18	=18	=18	=18	=18	=18	=18	=18
4c\	.	2.ryy	.	.	2.ryy	2.ryy	2.ryy	2.ryy	2cc\	wszyt-	.	2ee\	na-	-świę-	2.ryy	.	.	2cc\	2ee\
4c\	.	.	.	.	.	.	.	.	.	.	.	.	.	.	.	.	.	.	.
4B\	.	.	.	.	.	.	.	.	4b\	-ka	.	4dd\	-sza	-tsza	.	.	.	4b\	4dd\
=19	=19	=19	=19	=19	=19	=19	=19	=19	=19	=19	=19	=19	=19	=19	=19	=19	=19	=19	=19
4c\	.	2.ryy	4a\	4cc\	2.ryy	2.ryy	2.ryy	2.ryy	8b\L	Na-	.	4cc\	u-	.	2.ryy	4a\	4cc\	4cc\	4aa\
.	.	.	.	.	.	.	.	.	8a\J	.	.	.	.	.	.	.	.	.	.
4d\	.	.	4g\	4b\	.	.	.	.	4g\	-dzie-	.	4b\	-ciec-	ma-	.	4g\	4b\	4b\	4gg\
4D\	.	.	4d\	4a\	.	.	.	.	4d\	.	.	4a\	.	-ri-	.	4d\	4a\	4a\	4ff#\
=20	=20	=20	=20	=20	=20	=20	=20	=20	=20	=20	=20	=20	=20	=20	=20	=20	=20	=20	=20
4G\	.	2.ryy	4B/	4g\	2.ryy	2.ryy	2.ryy	2.ryy	2B\	-ja	.	2g\	-ka	-ja	2.ryy	4B/	4g\	8g`/L	8g`/L
.	.	.	.	.	.	.	.	.	.	.	.	.	.	.	.	.	.	16f#`/L	16a`/L
.	.	.	.	.	.	.	.	.	.	.	.	.	.	.	.	.	.	16g`/JJ	16b`/JJ
4r	.	.	4r	4r	.	.	.	.	.	.	.	.	.	.	.	4r	4r	16a`/LL	16cc`/LL
.	.	.	.	.	.	.	.	.	.	.	.	.	.	.	.	.	.	16b`/	16dd`/
.	.	.	.	.	.	.	.	.	.	.	.	.	.	.	.	.	.	16cc`/	16ee`/
.	.	.	.	.	.	.	.	.	.	.	.	.	.	.	.	.	.	16a`/JJ	16ff#`/JJ
4r	.	.	4r	4r	.	.	.	.	4r	.	.	4r	.	.	.	4r	4r	4b`/	4gg\
!LO:LB:g=original	!	!	!	!	!	!	!	!	!	!	!	!	!	!	!	!	!	!	!LO:LB:g=original
=21	=21	=21	=21	=21	=21	=21	=21	=21	=21	=21	=21	=21	=21	=21	=21	=21	=21	=21	=21
4c\	.	2.ryy	4a\	4cc\	2.ryy	2.ryy	2.ryy	2.ryy	4a\	zba-	.	4cc\	Naj-	módl	2.ryy	4a\	4cc\	4cc\	4aa\
4d\	.	.	4g\	4b\	.	.	.	.	4g\	-wie-	.	4b\	.	.	.	4g\	4b\	4b\	4gg\
4D\	.	.	4d\	4a\	.	.	.	.	4f#\	.	.	4a\	-święt-	się	.	4d/	4a\	4a\	4ff#\
!	!	!	!	!	!	!	!	!	!	!	!	!LO:LB:g=original	!	!	!	!	!	!	!
=22	=22	=22	=22	=22	=22	=22	=22	=22	=22	=22	=22	=22	=22	=22	=22	=22	=22	=22	=22
4G\	.	2.ryy	4B/	4g\	2.ryy	2.ryy	2.ryy	2.ryy	2g\	-nia	.	2g\	-sza	dziś	2.ryy	4B/	4g\	8g`\L	8b`\L
.	.	.	.	.	.	.	.	.	.	.	.	.	.	.	.	.	.	16a`\L	16cc`\L
.	.	.	.	.	.	.	.	.	.	.	.	.	.	.	.	.	.	16b`\JJ	16dd`\JJ
4r	.	.	4r	4r	.	.	.	.	.	.	.	.	.	.	.	4r	4r	16cc`\LL	16ee`\LL
.	.	.	.	.	.	.	.	.	.	.	.	.	.	.	.	.	.	16dd`\	16ff#`\
.	.	.	.	.	.	.	.	.	.	.	.	.	.	.	.	.	.	16ee`\	16gg`\
.	.	.	.	.	.	.	.	.	.	.	.	.	.	.	.	.	.	16ff#`\JJ	16aa`\JJ
4r	.	.	4r	4r	.	.	.	.	4r	.	.	4r	.	.	.	4r	4r	4gg\	4bb\
!	!	!	!	!	!	!	!	!	!	!	!	!LO:LB:g=original	!	!	!	!	!	!LO:LB:g=original	!
=23!|:	=23	=23	=23	=23	=23	=23	=23	=23	=23	=23	=23	=23	=23	=23	=23	=23	=23	=23	=23
4c\yy	.	2.ryy	4a\	4cc\	2.ryy	2.ryy	2.ryy	2.ryy	8cc\L	na-	.	4ccL\	Ma-	za	2.ryy	4a\	4cc\	4cc\	4aa\
.	.	.	.	.	.	.	.	.	8a\J	.	.	.	.	.	.	.	.	.	.
4d\yy	.	.	4g\	4b\	.	.	.	.	4g\	-sze-	.	4b\	-ri-	na-	.	4g\	4b\	4b\	4gg\
4D\yy	.	.	4d\	4a\	.	.	.	.	4f#\	.	.	4a\	.	.	.	4d\	4a\	4a\	4ff#\
=24	=24	=24	=24	=24	=24	=24	=24	=24	=24	=24	=24	=24	=24	=24	=24	=24	=24	=24	=24
4G\yy	.	2.ryy	4B/	2g\	2.ryy	2.ryy	2.ryy	2.ryy	2g\	-go	.	2g\	-a.]	-my	2.ryy	4B/	4g\	2b\	2gg\
4D\yy	.	.	4r	.	.	.	.	.	.	.	.	.	.	.	.	4r	4r	.	.
4GG/yy	.	.	4r	4r	.	.	.	.	4r	.	.	4r	.	.	.	4r	4r	4r	4r
==:|!	==	==	==	==	==	==	==	==	==	==	==	==	==	==	==	==	==	==	==
*-	*-	*-	*-	*-	*-	*-	*-	*-	*-	*-	*-	*-	*-	*-	*-	*-	*-	*-	*-
!!!system-decoration: [(s1,s2)][(s3,s4)][(s5)][(s6,s7,s8,s9)][(s10,s11,s12,s13,s14)][(s15)]
!!!ENC: Andrzej Gręziak
!!!END: 2020-10-05
!!!ENC: Leszek Kubiak
!!!END: 2021-11-18
